X:35
T: Wragg’s Duetto No20,A March,aka.3voices. AJH.035
M:4/4
L:1/8
Q:1/4=140
S:A.J.Hughes MS
C:untitled in MS
N:cf Rev.R.Harrison’s MS,c1815,Cumbria
N:Tune is RH005 Wragg’s Duetto No20, A March.(late c18th?)
O:England
A:North Shropshire
V:1
V:2
V:3 clef=bass
Z:Neil Brookes 2006
K:G
[V:1] |:D2| G2G>GG2A2 | B2B>BB2c2 | de/f/ g/f/.e/.d/ edcB | A2A>AA2D2 |
[V:2] |:z2| z4z2D2 | G2G>GG2A2 | Bc/d/ e/d/c/B/ cBAG | D2D>DD2z2 |
[V:3] |:z2| G,2G,>G,G,2G,,2 | D,2D,>D,D,2A,,2 | D,2G,2A,2G,,2 | D,2D,>D,D,2z2 |
%
[V:1] G2G>GG2A2 | B2B>BB2c2 | .d>e.f>g B2A2 | G2G>GG2 😐
[V:2] z4z2D2 | G2G>GG2A2 | B>cA>BG2F2 | G2B>BB2 😐
[V:3] G,,2G,,>G,,G,,2A,,2 | D,2D,>D,D,2E,2 | G,2B,,2C,2D,2 | G,,2G,,>G,,G,,2 😐
%
[V:1] A2| d2d>dd2e2 | f2f>ff2g2 | afaf bagf | e2e>ee2A2 |
[V:2] z2| z4z2A2 | d2d>dd2e2 | fdfd gf.e.d | A2A>A A>GF>E |
[V:3] z2| D,2D,>D,D,2A,,2 | D,2D,>D,D,2G,2 | F,2D,2G,2E,2 | A,,2A,>A,,A,,2z2 |
%
[V:1] d2d>dd2e2 | f2f>ff2g2 | a>gb>g f>ed>^c | d2d>e d>cB>A |
[V:2] D2z2z2A2 | d2d>dd2e2 | d>eg>e d2A2 | D2d>c B>A G>F |
[V:3] D,2D,>D,D,2z2 | F,2F,>F,F,2G,2 | F,2D,2D,2A,,2 | D,2D,2D,>C,B,,>A,, |
%
[V:1] G2G>GG2A2 | B2B>BB2c2 | de/f/ g/f/.e/.d/ edcB | A2A>AA2D2 |
[V:2] G2z2z2D2 | G2G>GG2A2 | Bc/d/ e/d/.c/.B/ cBAG | D2D>DD2z2 |
[V:3] G,,2G,,>G,,G,,2A,,2 | D,2D,>D,D,2A,,2 | D,2E,2 C,B,,A,,G,, | D,2D,>D,D,2z2 |
%
[V:1] G2G>GG2A2 | B2B>BB2c2 | d/e/f/g/ f/e/d/c/B2A2 | G3D GDGD |
[V:2] B4z2D2 | G2G>GG2A2 | B>B d/c/B/A/ G2F2 | G2z2z4 |
[V:3] G,2G,>G,G,2z2 | D,2D,>D,D,2z2 | D,F, D,B,,G,2D,2 | G,,3G,,G,,2G,,2 |
%
[V:1] B3G BGBG | d3B dBdB | g3d gege | g>ab>a g>fe>d |
[V:2] G3D GDGD | B3G BGBG | d3B dBdB | G2z2z4 |
[V:3] D,3G,G,2G,2 | D,3G,D,2G,,2 | G,,3G,,G,2G,2 | D,2B,,2G,2E,2 |
%
[V:1] e>fg>f e>dc>B | {FG}A8 | {GA}G3b gbgb | g2z2g2z2 | g8|]
[V:2] g>ab>a g>fe>d | cBcB d2D2 | D3d BdBd | GBdB GBdB | G8|]
[V:3] G,2B,,2G,2E,2 | A,,4D,4 | G,,3D,G,2G,2 | G,2z2G,2z2 | G,,8|]

